X:526
L:1/8
Q:1/4=120
M:6/8
K:G
"^Playful but not too fast." dc | B2 G GFG | D2 E FEF | GAG GAB | cAG FGA | BcB BAG | ABA ABc | 
 dcB AGF | A2 G G2 || D | G2 A B2 c | ded d2 c | BAG FGA | cAG F2 A | BcB BAG | ABA ABc | dcB AGF | 
 A2 G G2 ||

